products/org.csstudio.iter.css.product/SymbolLibrary_quad_hd/SVG/Electrical/Miscellaneous/Disconnecting.svg

<?xml version="1.0" encoding="UTF-8" standalone="no"?>
<!--
/*******************************************************************************
* Copyright (c) 2010-2016 ITER Organization.
* All rights reserved. This program and the accompanying materials
* are made available under the terms of the Eclipse Public License v1.0
* which accompanies this distribution, and is available at
* http://www.eclipse.org/legal/epl-v10.html
******************************************************************************/
-->
<!-- Created with Inkscape (http://www.inkscape.org/) -->

<svg
   xmlns:dc="http://purl.org/dc/elements/1.1/"
   xmlns:cc="http://creativecommons.org/ns#"
   xmlns:rdf="http://www.w3.org/1999/02/22-rdf-syntax-ns#"
   xmlns:svg="http://www.w3.org/2000/svg"
   xmlns="http://www.w3.org/2000/svg"
   xmlns:sodipodi="http://sodipodi.sourceforge.net/DTD/sodipodi-0.dtd"
   xmlns:inkscape="http://www.inkscape.org/namespaces/inkscape"
   width="91.840927pt"
   height="41.237717pt"
   viewBox="0 0 114.80116 51.547145"
   id="svg4158"
   version="1.1"
   inkscape:version="0.91 r13725"
   sodipodi:docname="OL_EE99_CODAC.svg">
  <defs
     id="defs4160" />
  <sodipodi:namedview
     id="base"
     pagecolor="#ffffff"
     bordercolor="#666666"
     borderopacity="1.0"
     inkscape:pageopacity="0.0"
     inkscape:pageshadow="2"
     inkscape:zoom="1.6366351"
     inkscape:cx="43.221101"
     inkscape:cy="-22.896808"
     inkscape:document-units="px"
     inkscape:current-layer="layer1"
     showgrid="false"
     units="pt"
     fit-margin-top="9.8"
     fit-margin-bottom="9.8"
     fit-margin-left="9.8"
     fit-margin-right="9.8"
     inkscape:window-width="1366"
     inkscape:window-height="706"
     inkscape:window-x="-8"
     inkscape:window-y="-8"
     inkscape:window-maximized="1" />
  <metadata
     id="metadata4163">
    <rdf:RDF>
      <cc:Work
         rdf:about="">
        <dc:format>image/svg+xml</dc:format>
        <dc:type
           rdf:resource="http://purl.org/dc/dcmitype/StillImage" />
        <dc:title></dc:title>
      </cc:Work>
    </rdf:RDF>
  </metadata>
  <g
     inkscape:label="Layer 1"
     inkscape:groupmode="layer"
     id="layer1"
     transform="translate(-145.74954,-457.91826)">
    <g
       transform="matrix(1.25,0,0,1.25,158.04762,470.5058)"
       id="surface1">
      <path
         inkscape:connector-curvature="0"
         style="fill:none;stroke:#000000;stroke-width:1.00056005;stroke-linecap:round;stroke-linejoin:round;stroke-miterlimit:4;stroke-opacity:1"
         d="m 14.000415,8.499113 c 0,2.485801 -2.686181,4.500437 -6.000583,4.500437 -3.314401,0 -6.000583,-2.014636 -6.000583,-4.500437 0,-2.483996 2.686182,-4.498632 6.000583,-4.498632 3.314402,0 6.000583,2.014636 6.000583,4.498632 z"
         transform="matrix(1.622889,0,0,2.163852,-2.471122,-7.84395)"
         id="path5" />
      <path
         inkscape:connector-curvature="0"
         style="fill:none;stroke:#000000;stroke-width:1.00976098;stroke-linecap:round;stroke-linejoin:round;stroke-miterlimit:4;stroke-opacity:1"
         d="m 47.000875,8.999855 c 0,2.761944 -2.462283,5.000382 -5.500422,5.000382 -3.038139,0 -5.500421,-2.238438 -5.500421,-5.000382 0,-2.761945 2.462282,-5.000383 5.500421,-5.000383 3.038139,0 5.500422,2.238438 5.500422,5.000383 z"
         transform="matrix(1.770461,0,0,1.947507,-11.904619,-6.9765)"
         id="path7" />
      <path
         inkscape:connector-curvature="0"
         style="fill:none;stroke:#000000;stroke-width:1.25;stroke-linecap:round;stroke-linejoin:round;stroke-miterlimit:4;stroke-opacity:1"
         d="m 7.526042,1038.9091 33.255208,0"
         transform="matrix(1.5,0,0,1.5,0,-1557.5433)"
         id="path9" />
      <path
         inkscape:connector-curvature="0"
         style="fill:none;stroke:#000000;stroke-width:1.25;stroke-linecap:round;stroke-linejoin:round;stroke-miterlimit:4;stroke-opacity:1"
         d="m 6.96875,1051.8882 34.028646,0"
         transform="matrix(1.5,0,0,1.5,0,-1557.5433)"
         id="path11" />
    </g>
  </g>
</svg>

<?xml version="1.0" encoding="UTF-8"?>
<!--
/*******************************************************************************
* Copyright (c) 2010-2016 ITER Organization.
* All rights reserved. This program and the accompanying materials
* are made available under the terms of the Eclipse Public License v1.0
* which accompanies this distribution, and is available at
* http://www.eclipse.org/legal/epl-v10.html
******************************************************************************/
-->
<svg xmlns="http://www.w3.org/2000/svg" xmlns:xlink="http://www.w3.org/1999/xlink" width="72pt" height="21pt" viewBox="0 0 72 21" version="1.1">
<g id="surface1">
<path style="fill:none;stroke-width:1.00056;stroke-linecap:round;stroke-linejoin:round;stroke:rgb(0%,0%,0%);stroke-opacity:1;stroke-miterlimit:4;" d="M 14.000415 8.499113 C 14.000415 10.984914 11.314234 12.99955 7.999832 12.99955 C 4.685431 12.99955 1.999249 10.984914 1.999249 8.499113 C 1.999249 6.015117 4.685431 4.000481 7.999832 4.000481 C 11.314234 4.000481 14.000415 6.015117 14.000415 8.499113 Z " transform="matrix(1.622889,0,0,2.163852,-2.471122,-7.84395)"/>
<path style="fill:none;stroke-width:1.009761;stroke-linecap:round;stroke-linejoin:round;stroke:rgb(0%,0%,0%);stroke-opacity:1;stroke-miterlimit:4;" d="M 47.000875 8.999855 C 47.000875 11.761799 44.538592 14.000237 41.500453 14.000237 C 38.462314 14.000237 36.000032 11.761799 36.000032 8.999855 C 36.000032 6.23791 38.462314 3.999472 41.500453 3.999472 C 44.538592 3.999472 47.000875 6.23791 47.000875 8.999855 Z " transform="matrix(1.770461,0,0,1.947507,-11.904619,-6.9765)"/>
<path style="fill:none;stroke-width:1.25;stroke-linecap:round;stroke-linejoin:round;stroke:rgb(0%,0%,0%);stroke-opacity:1;stroke-miterlimit:4;" d="M 7.526042 1038.909075 L 40.78125 1038.909075 " transform="matrix(1.5,0,0,1.5,0,-1557.5433)"/>
<path style="fill:none;stroke-width:1.25;stroke-linecap:round;stroke-linejoin:round;stroke:rgb(0%,0%,0%);stroke-opacity:1;stroke-miterlimit:4;" d="M 6.96875 1051.888242 L 40.997396 1051.888242 " transform="matrix(1.5,0,0,1.5,0,-1557.5433)"/>
</g>
</svg>
